X:1
T:Quant en moy / Amour et biauté / Amare valde
T:Quant en moy / Amour et biauté / Amara valde
T:Guillaume de Machaut
T: Boogaart, J. (2012). Voice Hierarchy and Structure. In The Works of Guillaume de Machaut: Music, Image, Text in the Middle Ages . Retrieved from http://machaut.exeter.ac.uk/?q=node/1596 
T:© 2017 Tom Smekens - Licensed under Creative Commons Zero 1.0
T:© 2017 Tom Smekens - Licensed under Creative Commons Zero 1.0
T:© 2017 Tom Smekens - Licensed under Creative Commons Zero 1.0
T:© 2017 Tom Smekens - Licensed under Creative Commons Zero 1.0
T:© 2017 Tom Smekens - Licensed under Creative Commons Zero 1.0
T:© 2017 Tom Smekens - Licensed under Creative Commons Zero 1.0
T:© 2017 Tom Smekens - Licensed under Creative Commons Zero 1.0
T:© 2017 Tom Smekens - Licensed under Creative Commons Zero 1.0
C:Guillaume de Machaut
Z:© 2017 Tom Smekens - Licensed under Creative Commons Zero 1.0
%%score [ 1 2 3 ]
L:1/8
Q:3/8=90
M:9/4
K:C
V:1 treble nm="[Triplum]"
V:2 treble nm="[Motetus]"
V:3 bass nm="Tenor"
V:1
 A4 B2 A6 (3:2:2A2 B (3:2:2A2 G (3:2:2A2 ^F | G6 c4 B2 A2 G2 A2 | %2
w: Quant en moy vint pre- mie- re- ment A-|mours, si tres dou- cet- te-|
 B2 A2 G2 ^F6 ^F2 (3:2:2E2 F (3:2:2E2 F | G6 c2 (3cBc (3:2:2B2 A G2 (3:2:2G2 ^F (3:2:2G2 E | %4
w: ment * Me vost mon cuer en- a- mou-|rer, Que d'un * * * * re- gart me fist pre-|
 ^F6- F6 z6 | A4 G2 ^F2 (3:2:2E2 F (3:2:2E2 F G6 | z6 (3:2:2G2 ^F (3:2:2G2 G (3:2:2A2 B G2 G4 | %7
w: sent, *|Et tres a- mou- reus sen- te- ment|Me don- na a- vec Dous Pen- ser:|
 z2 z2 E2 E2 z2 z2 A2 A2 z2 | A2 (3:2:2B2 A (3:2:2G2 A B6 G6 | %9
w: Es- poir D'a- voir|Mer- cy sans re- fu- ser, Mais|
 (3BAB (3:2:2c2 B (3:2:2A2 B G6 E2 (3:2:2G2 A (3:2:2F2 G | A6- A6 z6 | %11
w: on- * * * * * * ques en tout * mon vi-|vant *|
 A4 D2 A2 (3:2:2G2 F (3:2:2E2 F D6 | z6 G6 D6 | %13
w: Har- de- ment ne me volt don- ner;|Et si|
 D2 (3:2:2F2 E (3:2:2D2 E F4 F2 (3:2:2c2 B (3:2:2A2 B (3:2:2A2 G | %14
w: me fait en de- si- rant Pen- ser si a- mou- reu- se-|
 (3:2:2A2 G (3FEF (3:2:2E2 D ^C6 (3:2:2^C2 D (3:2:2E2 D (3:2:2C2 C | %15
w: ment, * * * * * * Que par for- ce de de- si-|
 D6 =B6 (3:2:2c2 B (3:2:2A2 B (3:2:2A2 G | A6- A6 z6 | A4 G2 ^F2 (3:2:2E2 F (3:2:2E2 F G6 | %18
w: rer Ma joi- e con- vient en tour-|ment *|Mu- er, se je n'ay har- de- ment,|
 z6 (3:2:2G2 ^F (3:2:2G2 F (3:2:2G2 A G2 G4 | z2 z2 A2 A2 z2 z2 E2 E2 z2 | A6 G4 ^F2 G2 ^F2 G2 | %21
w: Las! et je n'en puis re- cou- vrer,|Qu'A- mours Se- cours|Ne * me vuet nul pres-|
 A4 G2 ^F6 (3:2:2^F2 G (3:2:2A2 G (3:2:2F2 E | G6- G6 z6 | B4 c2 B2 (3:2:2A2 G (3:2:2A2 B G6 | %24
w: ter, * Qui en ses las si du- re-|ment *|Me tient que n'en puis es- cha- per;|
 z6 c6 (3:2:2c2 c (3:2:2B2 B (3:2:2A2 A | G4 G2 (3:2:2A2 G (3:2:2G2 F (3:2:2F2 E D6 | %26
w: Ne je ne vueil, qu'en a- ten-|dant Sa gra- ce, je vueil hum- ble- ment|
 E6 ^F2 A2 G2 ^F2 E2 F2 | G6 B6 (3:2:2G2 A (3:2:2G2 F (3:2:2G2 G | C6- C6 z6 | %29
w: Tou- tes ces do- lours en- du-|rer; Et s'A- mours loy- al le con-|sent *|
 G4 F2 E2 (3:2:2E2 D (3:2:2E2 C D6 | z6 (3:2:2G2 A (3:2:2G2 F (3:2:2E2 F D2 D4 | %31
w: Que ma dou- ce dame au corps gent|Me vueil- le son a- mi cla- mer.|
 z2 z2 E2 E2 z2 z2 C2 E2 z2 | ^F6 D6 (3:2:2D2 C D2 E2 | D6 E6 (3:2:2E2 F (3:2:2G2 F (3:2:2E2 D | %34
w: Je sai De vray|Que * a- rai, sans fi-|ner. Joi- e qu'A- mours a fin- a-|
 F6- F6 z6 | A4 D2 A2 (3:2:2G2 A (3:2:2G2 F E6 |[M:3/4] z6 | G6 | (3z z A B2 B2 | c2 (3z z G A2 | %40
w: mant *|Doit pour ses mans guer- re- don- ner.||Mais|el- le~a- tent|trop lon- gue-|
 B6 | G6 | c2 A2 c2 | (3cBc (3:2:2B2 A (3:2:2G2 F | (3z z G G2 F2 | E2 (3z z C E2 | %46
w: ment||Et j'aim- me|si * * fo- let- te- ment|Que je n'o-|se mer- cy|
 ^F2 (3:2:2G2 F (3:2:2E2 F | G6 | z6 | =F6 | (3z z A E2 ^F2 | G2 (3z z A _B2 | A6 | D6 | %54
w: rou- * * * *|ver,||Car|j'aim miex vi-|vre en es-|pe-|rant|
 E2 (3EDE (3:2:2C2 D | E6 | (3z z G ^F2 G2 | A2 (3z z E ^F2 | G2 (3:2:2A2 G (3:2:2F2 G | A6 | z6 | %61
w: D'a- voir * * * mer-|cy|pro- chain- ne-|ment Que Re-|fus me vein- gne tu-|er||
 G6 | (3z z c A2 c2 | B2 (3z z G B2 | A4 A2 | (3:2:2A2 A (3:2:2G2 A (3:2:2G2 F | G6 | ^F6 | %68
w: Et|pour ce di|en sou- pi-|rant; Grant|fo- lie est de tant a-|mer|Que|
 (3z z G D2 G2 | F2 E2 (3z z D |[Q:1/4=45] F6 |] %71
w: de son dous|fa- ce~on a-|mer.|
V:2
 E6- E6 F2 E2 D2 | C6 G2 F2 E2 E2 D2 C2 | B,6- B,6- B,6 | (3:2:2C2 B, C2 D2 E6 G2 F2 E2 | %4
w: A- * mour * *|et biau- * * * * *|té * *|par- * * * fai- * * *|
 D6 z6 E6 | D6- D6 C6- | C6- C6 z6 | E2 E2 z2 z2 C2 E2 z2 z2 C2 | D6- D6- D6 | %9
w: te *|||Doub- ter Ce- ler Me|font * *|
 G2 F2 E2 E2 D2 C2 B,6 | C6 z6 C6 | A,6- A,6 D6- | D6 z6 G6 | F2 E2 F2 D6 (3:2:2F2 G A2 G2 | %14
w: par- * * fai- * * *|ment, *||* Et|* * * vrais De- * * *|
 ^F6- F6- F6 | G6 F2 E2 F2 D2 E2 F2 | E6 z6 C6 | D6- D6 C6- | C6- C6 z6 | %19
w: sirs, * *|qui m'a- * * fait- * *|te *|||
 C2 E2 z2 z2 F2 E2 z2 z2 C2 | D6- D6- D6 | E2 D2 E2 ^C4 B,2 ^C2 B,2 C2 | D6 z6 D6 | B,6- B,6 C6- | %24
w: De vous, Cuers dous, A-|mer * *|sans * * fi- * ne- * *|ment *||
 C6 z6 F4 E2 | E2 D2 C2 D4 C2 B,2 A,2 B,2 | ^C6- C6- C6 | D6 (3:2:2D2 E D2 C2 E6 | F6 z6 D6 | %29
w: * Et *|* * * quant * * * *|j'aim * *|si fi- * * * ne-|ment. *|
 C6- C6 B,6- | B,6- B,6 z6 | C2 C2 z2 z2 E2 D2 z2 z2 C2 | B,6- B,6- B,6 | %33
w: ||Mer- ci Vous pri, Car|el- * *|
 G2 F2 E2 (3:2:2D2 E D2 C2 B,6 | C6 z6 C6 | D6- D6 E6- |[M:3/4] E6 | z6 | ^F2 z2 F2 | z2 G2 E2 | %40
w: le * me soit * * * fai-|te *||||Sans *|vos- tre~hon-|
 ^F6 | (3:2:2G2 =F E2 D2 | F2 (3:2:2E2 D E2 | E2 D2 C2 | D2 z2 D2 | z2 E2 G2 | A6 | G2 F2 E2 | D6 | %49
w: nour|a- * * *||men- * *|rir, Car|j'aim miex|ein-|si * lan-|guir|
 z6 | ^C2 z2 C2 | z2 E2 F2 | E6 | A2 G2 F2 | G2 F2 G2 | A2 G2 A2 | D2 z2 D2 | z2 ^C2 C2 | D4 E2 | %59
w: |Et *|mo- rir,|s'il|vous * *|a- * *|gre- * *|e, Que|par moy|fust em-|
 F2 E2 D2 | F6 | z6 | E2 z2 E2 | z2 G2 D2 | F6 | D2 E2 F2 | E4 D2 | ^C2 B,2 C2 | D2 z2 D2 | %69
w: pi- * re-|e||Vos- tre|hon- nour,|que|tant * de-|sir, Ne|de * fait|ne de|
 z2 C2 B,2 | C6 |] %71
w: pen- se-|e.|
V:3
"^Amara valde" A,16- x2 | C16- x2 | z6 D12 | C16- x2 | B,16- x2 | z18 | C16- x2 | A,16- x2 | %8
 z6 G,12 | G,16- x2 | F,16- x2 | z18 | G,16- x2 | _B,16- x2 | z6 A,12 | G,16- x2 | A,16- x2 | z18 | %18
 C16- x2 | A,16- x2 | z6 =B,12 | A,16- x2 | G,16- x2 | z18 | F,16- x2 | G,16- x2 | z6 A,12 | %27
 G,16- x2 | F,16- x2 | z18 | G,16- x2 | A,16- x2 | z6 G,12 | G,16- x2 | F,16- x2 | z18 | %36
[M:3/4] A,6 | C6 | z2 D4 | C6 | B,6 | z6 | C6 | A,6 | z2 G,4 | G,6 | F,6 | z6 | G,6 | _B,6 | %50
 z2 A,4 | G,6 | A,6 | z6 | C6 | A,6 | z2 =B,4 | A,6 | G,6 | z6 | F,6 | G,6 | z2 A,4 | G,6 | F,6 | %65
 z6 | G,6 | A,6 | z2 G,4 | G,6 | F,6 |] %71

